public/icons/metamask.svg

<svg width="54" height="54" viewBox="0 0 54 54" fill="none" xmlns="http://www.w3.org/2000/svg">
<path d="M46.4577 6.01678L29.5933 18.5422L32.7119 11.1524L46.4577 6.01678Z" fill="#E2761B" stroke="#E2761B" stroke-linecap="round" stroke-linejoin="round"/>
<path d="M7.52588 6.01678L24.2547 18.6608L21.2886 11.1524L7.52588 6.01678Z" fill="#E4761B" stroke="#E4761B" stroke-linecap="round" stroke-linejoin="round"/>
<path d="M40.3895 35.0511L35.8979 41.9324L45.5081 44.5765L48.2708 35.2036L40.3895 35.0511Z" fill="#E4761B" stroke="#E4761B" stroke-linecap="round" stroke-linejoin="round"/>
<path d="M5.74609 35.2036L8.49186 44.5765L18.102 41.9324L13.6105 35.0511L5.74609 35.2036Z" fill="#E4761B" stroke="#E4761B" stroke-linecap="round" stroke-linejoin="round"/>
<path d="M17.5593 23.4233L14.8813 27.4742L24.4237 27.8979L24.0847 17.6437L17.5593 23.4233Z" fill="#E4761B" stroke="#E4761B" stroke-linecap="round" stroke-linejoin="round"/>
<path d="M36.4247 23.4233L29.8146 17.525L29.5942 27.8979L39.1196 27.4742L36.4247 23.4233Z" fill="#E4761B" stroke="#E4761B" stroke-linecap="round" stroke-linejoin="round"/>
<path d="M18.1021 41.9322L23.8309 39.1356L18.8817 35.2712L18.1021 41.9322Z" fill="#E4761B" stroke="#E4761B" stroke-linecap="round" stroke-linejoin="round"/>
<path d="M30.1528 39.1356L35.8986 41.9322L35.102 35.2712L30.1528 39.1356Z" fill="#E4761B" stroke="#E4761B" stroke-linecap="round" stroke-linejoin="round"/>
<path d="M35.8986 41.9326L30.1528 39.136L30.6105 42.8817L30.5596 44.458L35.8986 41.9326Z" fill="#D7C1B3" stroke="#D7C1B3" stroke-linecap="round" stroke-linejoin="round"/>
<path d="M18.1021 41.9326L23.441 44.458L23.4071 42.8817L23.8309 39.136L18.1021 41.9326Z" fill="#D7C1B3" stroke="#D7C1B3" stroke-linecap="round" stroke-linejoin="round"/>
<path d="M23.5248 32.7968L18.7451 31.39L22.118 29.8477L23.5248 32.7968Z" fill="#233447" stroke="#233447" stroke-linecap="round" stroke-linejoin="round"/>
<path d="M30.457 32.7968L31.8638 29.8477L35.2536 31.39L30.457 32.7968Z" fill="#233447" stroke="#233447" stroke-linecap="round" stroke-linejoin="round"/>
<path d="M18.1009 41.9325L18.9145 35.0511L13.6094 35.2037L18.1009 41.9325Z" fill="#CD6116" stroke="#CD6116" stroke-linecap="round" stroke-linejoin="round"/>
<path d="M35.0845 35.0511L35.898 41.9325L40.3896 35.2037L35.0845 35.0511Z" fill="#CD6116" stroke="#CD6116" stroke-linecap="round" stroke-linejoin="round"/>
<path d="M39.1172 27.4746L29.5918 27.8983L30.4732 32.7966L31.8799 29.8475L35.2698 31.3899L39.1172 27.4746Z" fill="#CD6116" stroke="#CD6116" stroke-linecap="round" stroke-linejoin="round"/>
<path d="M18.7443 31.3899L22.1341 29.8475L23.5239 32.7966L24.4223 27.8983L14.8799 27.4746L18.7443 31.3899Z" fill="#CD6116" stroke="#CD6116" stroke-linecap="round" stroke-linejoin="round"/>
<path d="M14.8813 27.4746L18.8813 35.2712L18.7458 31.3899L14.8813 27.4746Z" fill="#E4751F" stroke="#E4751F" stroke-linecap="round" stroke-linejoin="round"/>
<path d="M35.2715 31.3899L35.1021 35.2712L39.119 27.4746L35.2715 31.3899Z" fill="#E4751F" stroke="#E4751F" stroke-linecap="round" stroke-linejoin="round"/>
<path d="M24.4242 27.8985L23.5259 32.7968L24.6445 38.5765L24.8988 30.9663L24.4242 27.8985Z" fill="#E4751F" stroke="#E4751F" stroke-linecap="round" stroke-linejoin="round"/>
<path d="M29.5934 27.8985L29.1357 30.9493L29.3391 38.5765L30.4747 32.7968L29.5934 27.8985Z" fill="#E4751F" stroke="#E4751F" stroke-linecap="round" stroke-linejoin="round"/>
<path d="M30.474 32.7969L29.3384 38.5766L30.1519 39.1359L35.1011 35.2715L35.2706 31.3901L30.474 32.7969Z" fill="#F6851B" stroke="#F6851B" stroke-linecap="round" stroke-linejoin="round"/>
<path d="M18.7451 31.3901L18.8807 35.2715L23.8299 39.1359L24.6434 38.5766L23.5248 32.7969L18.7451 31.3901Z" fill="#F6851B" stroke="#F6851B" stroke-linecap="round" stroke-linejoin="round"/>
<path d="M30.5597 44.4574L30.6105 42.8811L30.1868 42.5082H23.797L23.4071 42.8811L23.441 44.4574L18.1021 41.9319L19.9665 43.4574L23.7461 46.0845H30.2376L34.0343 43.4574L35.8987 41.9319L30.5597 44.4574Z" fill="#C0AD9E" stroke="#C0AD9E" stroke-linecap="round" stroke-linejoin="round"/>
<path d="M30.1525 39.1356L29.3389 38.5762H24.644L23.8305 39.1356L23.4067 42.8813L23.7966 42.5084H30.1864L30.6101 42.8813L30.1525 39.1356Z" fill="#161616" stroke="#161616" stroke-linecap="round" stroke-linejoin="round"/>
<path d="M47.1698 19.3558L48.6105 12.4405L46.4579 6.01678L30.1528 18.1185L36.424 23.4236L45.2884 26.0168L47.2545 23.7286L46.4071 23.1185L47.763 21.8812L46.7122 21.0676L48.0681 20.0337L47.1698 19.3558Z" fill="#763D16" stroke="#763D16" stroke-linecap="round" stroke-linejoin="round"/>
<path d="M5.39014 12.4405L6.83082 19.3558L5.91556 20.0337L7.27149 21.0676L6.23759 21.8812L7.59353 23.1185L6.74607 23.7286L8.69522 26.0168L17.5596 23.4236L23.8308 18.1185L7.52573 6.01678L5.39014 12.4405Z" fill="#763D16" stroke="#763D16" stroke-linecap="round" stroke-linejoin="round"/>
<path d="M45.2885 26.0174L36.4241 23.4242L39.119 27.475L35.1021 35.2716L40.3902 35.2039H48.2715L45.2885 26.0174Z" fill="#F6851B" stroke="#F6851B" stroke-linecap="round" stroke-linejoin="round"/>
<path d="M17.5597 23.4242L8.69525 26.0174L5.74609 35.2039H13.6105L18.8817 35.2716L14.8817 27.475L17.5597 23.4242Z" fill="#F6851B" stroke="#F6851B" stroke-linecap="round" stroke-linejoin="round"/>
<path d="M29.5937 27.898L30.153 18.1184L32.7293 11.1523H21.2886L23.8309 18.1184L24.4242 27.898L24.6276 30.9828L24.6445 38.576H29.3394L29.3733 30.9828L29.5937 27.898Z" fill="#F6851B" stroke="#F6851B" stroke-linecap="round" stroke-linejoin="round"/>
</svg>

<svg width="54" height="54" fill="none" xmlns="http://www.w3.org/2000/svg"><path d="M46.458 6.017 29.593 18.542l3.119-7.39 13.746-5.135Z" fill="#E2761B" stroke="#E2761B" stroke-linecap="round" stroke-linejoin="round"/><path d="M7.526 6.017 24.255 18.66l-2.966-7.509L7.526 6.017ZM40.39 35.051l-4.492 6.881 9.61 2.645 2.763-9.373-7.882-.153ZM5.746 35.204l2.746 9.373 9.61-2.645-4.492-6.88-7.864.152Z" fill="#E4761B" stroke="#E4761B" stroke-linecap="round" stroke-linejoin="round"/><path d="m17.56 23.423-2.679 4.051 9.543.424-.34-10.254-6.525 5.78ZM36.425 23.423l-6.61-5.898-.22 10.373 9.525-.424-2.695-4.05ZM18.102 41.932l5.729-2.796-4.95-3.865-.779 6.661ZM30.153 39.136l5.746 2.796-.797-6.66-4.95 3.864Z" fill="#E4761B" stroke="#E4761B" stroke-linecap="round" stroke-linejoin="round"/><path d="m35.899 41.933-5.746-2.797.457 3.746-.05 1.576 5.339-2.525ZM18.102 41.933l5.339 2.525-.034-1.576.424-3.746-5.729 2.797Z" fill="#D7C1B3" stroke="#D7C1B3" stroke-linecap="round" stroke-linejoin="round"/><path d="m23.525 32.797-4.78-1.407 3.373-1.542 1.407 2.949ZM30.457 32.797l1.407-2.95 3.39 1.543-4.797 1.407Z" fill="#233447" stroke="#233447" stroke-linecap="round" stroke-linejoin="round"/><path d="m18.1 41.932.814-6.88-5.305.152 4.492 6.728ZM35.084 35.051l.814 6.881 4.492-6.728-5.306-.153ZM39.117 27.475l-9.525.423.881 4.899 1.407-2.95 3.39 1.543 3.847-3.915ZM18.744 31.39l3.39-1.543 1.39 2.95.898-4.899-9.542-.423 3.864 3.915Z" fill="#CD6116" stroke="#CD6116" stroke-linecap="round" stroke-linejoin="round"/><path d="m14.881 27.475 4 7.796-.135-3.881-3.865-3.915ZM35.272 31.39l-.17 3.881 4.017-7.796-3.847 3.915ZM24.424 27.898l-.898 4.899 1.119 5.78.254-7.61-.475-3.069ZM29.593 27.898l-.457 3.051.203 7.628 1.136-5.78-.882-4.898Z" fill="#E4751F" stroke="#E4751F" stroke-linecap="round" stroke-linejoin="round"/><path d="m30.474 32.797-1.136 5.78.814.559 4.95-3.864.169-3.882-4.797 1.407ZM18.745 31.39l.136 3.882 4.949 3.864.813-.56-1.118-5.78-4.78-1.406Z" fill="#F6851B" stroke="#F6851B" stroke-linecap="round" stroke-linejoin="round"/><path d="m30.56 44.457.05-1.576-.423-.373h-6.39l-.39.373.034 1.576-5.339-2.525 1.864 1.525 3.78 2.627h6.492l3.796-2.627 1.865-1.525-5.34 2.525Z" fill="#C0AD9E" stroke="#C0AD9E" stroke-linecap="round" stroke-linejoin="round"/><path d="m30.152 39.136-.813-.56h-4.695l-.813.56-.424 3.745.39-.373h6.39l.423.373-.457-3.745Z" fill="#161616" stroke="#161616" stroke-linecap="round" stroke-linejoin="round"/><path d="m47.17 19.356 1.44-6.916-2.152-6.423-16.305 12.101 6.271 5.306 8.864 2.593 1.967-2.288-.848-.61 1.356-1.238-1.05-.813 1.355-1.034-.898-.678ZM5.39 12.44l1.44 6.916-.914.678 1.355 1.034-1.033.813 1.356 1.238-.848.61 1.95 2.288 8.864-2.593 6.27-5.305L7.527 6.017 5.39 12.44Z" fill="#763D16" stroke="#763D16" stroke-linecap="round" stroke-linejoin="round"/><path d="m45.288 26.017-8.864-2.593 2.695 4.051-4.017 7.797 5.288-.068h7.882l-2.983-9.187ZM17.56 23.424l-8.865 2.593-2.949 9.187h7.864l5.272.068-4-7.797 2.678-4.05ZM29.594 27.898l.559-9.78 2.576-6.966H21.29l2.542 6.966.593 9.78.204 3.085.017 7.593h4.694l.034-7.593.22-3.085Z" fill="#F6851B" stroke="#F6851B" stroke-linecap="round" stroke-linejoin="round"/></svg>
